X: 1
T: The Big Reel Of Ballynacally
R: reel
M: 4/4
L: 1/8
K: Gmaj
|:DG (3GGG A2 dc|AGFG AGFG|DG (3GGG A2 dc|AGFG ~=F3 E|
|DG (3GGG A2 dc| AGFG ABcA|~d3 e fd(3ddd|1 dedc AGGF:|2 dedc AGGA||
|g2 dg(3ggg dg|(3ggg ag fdef|(3ggg fg ~a3 g|fdcA BGBd|
|g2 fg a=f(3fff|=fgfd e2 ec|~d3 e fedc|1 AGFG AGGA:|2 AGFG AGGD|


Tune 133	Setting 20771

